img/security1.svg

<svg width="78" height="94" viewBox="0 0 78 94" fill="none" xmlns="http://www.w3.org/2000/svg">
<g filter="url(#filter0_d)">
<path d="M38.9656 9.50708C38.9152 9.50708 38.8649 9.50708 38.8313 9.50708C38.1095 9.43989 37.5723 8.8352 37.5723 8.12974C37.5723 7.35708 38.1934 6.7356 38.9656 6.7356C39.7378 6.7356 40.3589 7.35708 40.3589 8.12974C40.3589 8.49927 40.2078 8.852 39.956 9.12075C39.6874 9.35591 39.3349 9.50708 38.9656 9.50708Z" fill="#ED1C24"/>
<path d="M38.9656 85.4289C38.8313 85.4289 38.697 85.4121 38.5627 85.3785C28.4407 82.3383 19.779 76.2578 13.501 67.7586C7.27332 59.3434 4 49.3492 4 38.8848V11.4723C4 10.6996 4.6211 10.0781 5.39326 10.0781C10.1773 10.0781 14.0717 6.18125 14.0717 1.39414C14.0717 0.621484 14.6928 0 15.465 0H62.4663C63.2384 0 63.8595 0.621484 63.8595 1.39414C63.8595 6.18125 67.7539 10.0781 72.538 10.0781C73.3101 10.0781 73.9312 10.6996 73.9312 11.4723V38.8848C73.9312 49.4668 70.5908 59.5281 64.2624 67.977C57.9843 76.3418 49.3898 82.3551 39.3685 85.3617C39.2342 85.4121 39.0999 85.4289 38.9656 85.4289ZM16.7407 3.04023C16.0189 8.0457 12.0238 12.0434 7.03831 12.7488L6.78652 12.7824V38.8848C6.78652 59.0242 19.6783 76.5602 38.8817 82.5566L38.9656 82.5902L39.0495 82.5566C58.2529 76.577 71.1447 59.0242 71.1447 38.8848V12.7824L70.8929 12.7488C65.8906 12.0266 61.8955 8.02891 61.1905 3.04023L61.1569 2.78828H16.7743L16.7407 3.04023Z" fill="#ED1C24"/>
<path d="M38.9656 78.3574C38.8145 78.3574 38.6467 78.3238 38.4956 78.2734C30.2704 75.3675 23.3041 70.1101 18.3354 63.0554C13.3499 56.0007 10.7145 47.6359 10.7145 38.8679V16.78C10.7145 16.2257 11.0502 15.7218 11.5538 15.5035C15.1124 13.9414 17.9493 11.1195 19.5104 7.54175C19.7286 7.03784 20.2322 6.7019 20.7862 6.7019H32.2679C33.0401 6.7019 33.6612 7.32339 33.6612 8.09605C33.6612 8.8687 33.0401 9.49019 32.2679 9.49019H21.6758L21.5919 9.64136C19.8462 13.0847 17.0932 15.8226 13.6688 17.5695L13.5178 17.6535V38.8679C13.5178 55.3624 23.472 69.7238 38.8817 75.4347L38.9824 75.4683L39.0831 75.4347C54.4928 69.7238 64.447 55.3624 64.447 38.8679V17.6703L64.296 17.5863C60.8548 15.8394 58.1186 13.0847 56.3729 9.65815L56.2889 9.50698H45.6969C44.9247 9.50698 44.3036 8.8855 44.3036 8.11284C44.3036 7.34019 44.9247 6.7187 45.6969 6.7187H57.1786C57.7326 6.7187 58.2361 7.05464 58.4544 7.55855C60.0155 11.1195 62.8356 13.9582 66.411 15.5203C66.9146 15.7386 67.2503 16.2425 67.2503 16.7968V38.8847C67.2503 47.6527 64.6149 56.0175 59.6294 63.0722C54.6607 70.1101 47.6776 75.3675 39.4692 78.2734C39.2845 78.3406 39.1335 78.3574 38.9656 78.3574Z" fill="#ED1C24"/>
<path d="M38.9656 54.1867C30.7907 54.1867 24.1434 47.5352 24.1434 39.3551C24.1434 31.175 30.7907 24.5234 38.9656 24.5234C47.1405 24.5234 53.7878 31.175 53.7878 39.3551C53.7878 47.5352 47.1405 54.1867 38.9656 54.1867ZM38.9656 27.3117C32.3351 27.3117 26.9299 32.7203 26.9299 39.3551C26.9299 45.9898 32.3351 51.3984 38.9656 51.3984C45.5961 51.3984 51.0013 45.9898 51.0013 39.3551C51.0013 32.7203 45.6129 27.3117 38.9656 27.3117Z" fill="#ED1C24"/>
<path d="M37.287 45.7883C36.9177 45.7883 36.5652 45.6371 36.2966 45.3852L32.9394 42.0258C32.4022 41.4883 32.4022 40.5981 32.9394 40.0606C33.208 39.7918 33.5605 39.6575 33.9298 39.6575C34.2991 39.6575 34.6516 39.8086 34.9202 40.0606L37.287 42.4289L44.6898 35.0215C44.9583 34.7528 45.3108 34.6184 45.6801 34.6184C46.0494 34.6184 46.402 34.7696 46.6705 35.0215C47.2077 35.559 47.2077 36.4493 46.6705 36.9868L38.2774 45.3852C38.0088 45.6371 37.6563 45.7883 37.287 45.7883Z" fill="#ED1C24"/>
</g>
<defs>
<filter id="filter0_d" x="0" y="0" width="77.9312" height="93.4289" filterUnits="userSpaceOnUse" color-interpolation-filters="sRGB">
<feFlood flood-opacity="0" result="BackgroundImageFix"/>
<feColorMatrix in="SourceAlpha" type="matrix" values="0 0 0 0 0 0 0 0 0 0 0 0 0 0 0 0 0 0 127 0"/>
<feOffset dy="4"/>
<feGaussianBlur stdDeviation="2"/>
<feColorMatrix type="matrix" values="0 0 0 0 0.929412 0 0 0 0 0.109804 0 0 0 0 0.141176 0 0 0 0.2 0"/>
<feBlend mode="normal" in2="BackgroundImageFix" result="effect1_dropShadow"/>
<feBlend mode="normal" in="SourceGraphic" in2="effect1_dropShadow" result="shape"/>
</filter>
</defs>
</svg>

<svg width="78" height="94" viewBox="0 0 78 94" fill="none" xmlns="http://www.w3.org/2000/svg"><g filter="url(#filter0_d)" fill="#ED1C24"><path d="M38.966 9.507h-.135a1.385 1.385 0 01-1.259-1.377 1.39 1.39 0 011.394-1.394 1.39 1.39 0 011.393 1.394c0 .37-.151.722-.403.99a1.521 1.521 0 01-.99.387z"/><path d="M38.966 85.429c-.135 0-.269-.017-.403-.05-10.122-3.04-18.784-9.121-25.062-17.62C7.273 59.343 4 49.349 4 38.885V11.472a1.39 1.39 0 011.393-1.394c4.784 0 8.679-3.897 8.679-8.684A1.39 1.39 0 0115.465 0h47.001a1.39 1.39 0 011.393 1.394c0 4.787 3.895 8.684 8.679 8.684a1.39 1.39 0 011.393 1.394v27.413c0 10.582-3.34 20.643-9.669 29.092-6.278 8.365-14.872 14.378-24.894 17.385-.134.05-.268.067-.402.067zM16.74 3.04c-.722 5.006-4.717 9.003-9.703 9.709l-.251.033v26.103c0 20.14 12.891 37.675 32.095 43.672l.084.033.084-.033c19.203-5.98 32.095-23.533 32.095-43.672V12.782l-.252-.033c-5.002-.722-8.998-4.72-9.703-9.709l-.033-.252H16.774l-.033.252z"/><path d="M38.966 78.357a1.54 1.54 0 01-.47-.084c-8.226-2.905-15.192-8.163-20.16-15.218-4.986-7.054-7.621-15.42-7.621-24.187V16.78a1.4 1.4 0 01.839-1.277 15.415 15.415 0 007.956-7.961c.219-.504.722-.84 1.276-.84h11.482a1.39 1.39 0 011.393 1.394 1.39 1.39 0 01-1.393 1.394H21.676l-.084.151a17.994 17.994 0 01-7.923 7.929l-.151.084v21.214c0 16.494 9.954 30.856 25.364 36.567l.1.033.101-.033c15.41-5.711 25.364-20.073 25.364-36.567V17.67l-.151-.084a17.994 17.994 0 01-7.923-7.928l-.084-.151H45.697a1.39 1.39 0 01-1.393-1.394 1.39 1.39 0 011.393-1.394h11.482c.554 0 1.057.336 1.275.84a15.415 15.415 0 007.957 7.961 1.4 1.4 0 01.84 1.277v22.088c0 8.768-2.636 17.133-7.622 24.187-4.968 7.038-11.951 12.296-20.16 15.201a1.378 1.378 0 01-.503.084z"/><path d="M38.966 54.187c-8.175 0-14.823-6.652-14.823-14.832s6.648-14.832 14.823-14.832 14.822 6.652 14.822 14.832-6.647 14.832-14.822 14.832zm0-26.875c-6.63 0-12.036 5.408-12.036 12.043 0 6.635 5.405 12.043 12.036 12.043C45.596 51.398 51 45.99 51 39.355c0-6.635-5.388-12.043-12.035-12.043z"/><path d="M37.287 45.788c-.37 0-.722-.15-.99-.403l-3.358-3.36a1.4 1.4 0 010-1.964c.269-.27.621-.404.99-.404.37 0 .723.152.991.404l2.367 2.368 7.403-7.407c.268-.27.62-.404.99-.404s.722.152.99.404a1.4 1.4 0 010 1.965l-8.393 8.398a1.456 1.456 0 01-.99.403z"/></g><defs><filter id="filter0_d" x="0" y="0" width="77.931" height="93.429" filterUnits="userSpaceOnUse" color-interpolation-filters="sRGB"><feFlood flood-opacity="0" result="BackgroundImageFix"/><feColorMatrix in="SourceAlpha" values="0 0 0 0 0 0 0 0 0 0 0 0 0 0 0 0 0 0 127 0"/><feOffset dy="4"/><feGaussianBlur stdDeviation="2"/><feColorMatrix values="0 0 0 0 0.929412 0 0 0 0 0.109804 0 0 0 0 0.141176 0 0 0 0.2 0"/><feBlend in2="BackgroundImageFix" result="effect1_dropShadow"/><feBlend in="SourceGraphic" in2="effect1_dropShadow" result="shape"/></filter></defs></svg>
